img/s-fb.svg

<svg width="24px" height="24px" viewBox="0 0 24 24" version="1.1" xmlns="http://www.w3.org/2000/svg" xmlns:xlink="http://www.w3.org/1999/xlink">
    <defs>
        <path d="M15.035625,13 L15.48,10.104375 L12.7015625,10.104375 L12.7015625,8.2253125 C12.7015625,7.433125 13.0896875,6.6609375 14.3340625,6.6609375 L15.5971875,6.6609375 L15.5971875,4.195625 C15.5971875,4.195625 14.4509375,4 13.355,4 C11.066875,4 9.57125,5.386875 9.57125,7.8975 L9.57125,10.104375 L7.0278125,10.104375 L7.0278125,13 L9.57125,13 L9.57125,20 L12.7015625,20 L12.7015625,13 L15.035625,13 Z" id="path-1"></path>
    </defs>
    <g id="Material/Icons-black/s_fb" stroke="none" stroke-width="1" fill="none" fill-rule="evenodd">
        <polygon id="Shape" points="0 0 24 0 24 24 0 24"></polygon>
        <mask id="mask-2" fill="white">
            <use xlink:href="#path-1"></use>
        </mask>
        <use id="Shape" fill="#9C9C9C" fill-rule="nonzero" xlink:href="#path-1"></use>
        <g id="UI/Color/Flat/Icon-Color" mask="url(#mask-2)" fill="#9C9C9C">
            <rect id="Base" x="0" y="0" width="24" height="24"></rect>
        </g>
    </g>
</svg>

<svg xmlns="http://www.w3.org/2000/svg" xmlns:xlink="http://www.w3.org/1999/xlink" width="24" height="24" viewBox="0 0 24 24">
    <defs>
        <path id="fb-a" d="M15.036 13l.444-2.896h-2.778V8.225c0-.792.388-1.564 1.632-1.564h1.263V4.196S14.451 4 13.355 4c-2.288 0-3.784 1.387-3.784 3.897v2.207H7.028V13H9.57v7h3.13v-7h2.335z"/>
    </defs>
    <g fill="none" fill-rule="evenodd">
        <path d="M0 0h24v24H0z"/>
        <mask id="fb-b" fill="#fff">
            <use xlink:href="#a"/>
        </mask>
        <use fill="#000" fill-rule="nonzero" xlink:href="#fb-a"/>
        <g fill="#9C9C9C" mask="url(#fb-b)">
            <path d="M0 0h24v24H0z"/>
        </g>
    </g>
</svg>
